X: 148
T:Les filles de Dunkerque
M:2/4
L:1/8
Q:60
O:FRANCE
A:FLANDRE
K:F
F2FA|c2BA|Gc AF|F2FA|c2 BA|GcF2|A2AG|A2B2|cAF2||
M:9/8
F2F FFF FEF|G2GG2 cc2B||
M:2/4
A2B2|cA F2|
M:9/8
F2AG2GF3||
W:
W: From "Falaleiro" http://home.t-online.de/home/pheld/homepage.htm
